X: 17
T:Miss Jane McInnes, Dandaleith
B:William Marshall Volume 2nd Of A Collection Of Scottish Melodies (1845)
C:William Marshall
L:1/8
M:4/4
O:Scotland
R:Strathspey
Z:Clark Bernst
%%Page:29 - 1
F:http://richardrobinson.tunebook.org.uk/tune/3860
%%TBL:{"version":1,"type":"tune","id":"3860"}
K:A
c  [| \
E/E3/2E3/2F/ =G3 B | A/A3/2A3/2c/ e/d/c/B/ Ac | \
E/E3/2E3/2F/ =G2 Gc/d/ | e3/2c/d3/2B/ c/A3/2Ac |
E/E3/2E3/2F/ =G3 B | A/A3/2A3/2c/ e/d/c/B/ Ac | \
E/E3/2E3/2F/ =G2 Gc/d/ | e3/2c/d3/2B/ c/A3/2Ag ||
a2 e3/2g/ a/g/f/e/ c/A3/2 | B/=g3/2d/g3/2 B/G3/2 G f/^g/ | \
aegb aecA | fagb a/A3/2 A f/g/ |
aefd cecA | B/=g3/2d/g3/2 B/G3/2G3/2B/ | \
cA A/A/A {g}a2 gb | a/g/f/e/ a3/2e/ c/A3/2Ac |]

